img/tw.svg

<svg width="16" height="14" viewBox="0 0 16 14" fill="none" xmlns="http://www.w3.org/2000/svg">
<path id="twi_red" fill-rule="evenodd" clip-rule="evenodd" d="M0 12.0253C1.4528 12.9572 3.1776 13.5 5.032 13.5C11.0704 13.5 14.372 8.49825 14.372 4.16112C14.372 4.01894 14.3688 3.87838 14.3624 3.73781C15.004 3.27469 15.5608 2.697 16 2.03887C15.412 2.3005 14.7792 2.476 14.1152 2.554C14.7928 2.15019 15.312 1.50506 15.5584 0.739688C14.924 1.11506 14.2208 1.38806 13.4736 1.53513C12.8752 0.898125 12.0216 0.5 11.0776 0.5C9.2648 0.5 7.7944 1.96819 7.7944 3.78006C7.7944 4.03844 7.824 4.28788 7.88 4.52838C5.152 4.39188 2.732 3.08538 1.1144 1.09962C0.832 1.5855 0.6696 2.14775 0.6696 2.74981C0.6696 3.88812 1.2488 4.89319 2.1296 5.48144C1.5912 5.466 1.0856 5.31731 0.6424 5.07113C0.6424 5.08494 0.6424 5.09875 0.6424 5.11256C0.6424 6.70181 1.7752 8.02944 3.2752 8.33088C3.0008 8.40644 2.7104 8.44544 2.4112 8.44544C2.1992 8.44544 1.9936 8.42594 1.7936 8.38694C2.2104 9.69181 3.4232 10.6408 4.8592 10.666C3.736 11.5468 2.3224 12.07 0.7832 12.07C0.5184 12.07 0.2576 12.057 0 12.0253Z" fill="#8D8D8D"/>
</svg>

<svg width="16" height="14" viewBox="0 0 16 14" fill="none" xmlns="http://www.w3.org/2000/svg"><path fill-rule="evenodd" clip-rule="evenodd" d="M0 12.03a9.29 9.29 0 0 0 5.03 1.47c6.04 0 9.34-5 9.34-9.34v-.42A6.66 6.66 0 0 0 16 2.04a6.5 6.5 0 0 1-1.88.51c.67-.4 1.2-1.04 1.44-1.81a6.6 6.6 0 0 1-2.09.8 3.28 3.28 0 0 0-5.59 2.99A9.31 9.31 0 0 1 1.11 1.1a3.27 3.27 0 0 0 1.02 4.38 3.25 3.25 0 0 1-1.49-.4v.03a3.29 3.29 0 0 0 2.64 3.22 3.25 3.25 0 0 1-1.49.06 3.28 3.28 0 0 0 3.07 2.28A6.58 6.58 0 0 1 0 12.03Z" fill="#8D8D8D"/></svg>
